; #############################################
; generated by retraction-seeker.py
; http://github.com/volca02/retraction-seeker/
; #############################################
; 
; NOTE: no machine.json config file found - skipping
; ==== retraction map ====
; 
;  Y (retr. speed)
;  ^ 
; 0,0 > X (retr. distance)
; 
; [ 5] 60.00 mm/s :  [ 1] .. 4.0 mm .. [ 2] .. 4.5 mm .. [ 3] .. 5.0 mm .. [ 4] .. 5.5 mm .. [ 5] .. 6.0 mm .. [ 6] .. 6.5 mm .. [ 7]
; [ 4] 50.00 mm/s :  [ 1] .. 4.0 mm .. [ 2] .. 4.5 mm .. [ 3] .. 5.0 mm .. [ 4] .. 5.5 mm .. [ 5] .. 6.0 mm .. [ 6] .. 6.5 mm .. [ 7]
; [ 3] 40.00 mm/s :  [ 1] .. 4.0 mm .. [ 2] .. 4.5 mm .. [ 3] .. 5.0 mm .. [ 4] .. 5.5 mm .. [ 5] .. 6.0 mm .. [ 6] .. 6.5 mm .. [ 7]
; [ 2] 30.00 mm/s :  [ 1] .. 4.0 mm .. [ 2] .. 4.5 mm .. [ 3] .. 5.0 mm .. [ 4] .. 5.5 mm .. [ 5] .. 6.0 mm .. [ 6] .. 6.5 mm .. [ 7]
; [ 1] 20.00 mm/s :  [ 1] .. 4.0 mm .. [ 2] .. 4.5 mm .. [ 3] .. 5.0 mm .. [ 4] .. 5.5 mm .. [ 5] .. 6.0 mm .. [ 6] .. 6.5 mm .. [ 7]
; 
; Z: (print temp.)
; [ 1] - 0.00 mm - 190.00 C
; ========================


;
; PROLOGUE
; ################
; settings:
;   accel_x = 500
;   accel_y = 500
;   accel_z = 100
;   accel_e = 5000
;   feed_x = 500
;   feed_y = 500
;   feed_z = 5
;   feed_z_m = 300
;   feed_z_ret = 300
;   feed_e = 25
;   temp_bed = 50
;   temp_nozzle = 190
;   fan_spd_initial = 0
;   fan_spd_other = 169
;   feed_travel = 9000
;   feed_print = 3000
;   feed_print_outer = 3000
;   feed_print_first = 1200
;   bed_size_x = 235
;   bed_size_y = 235
;   nozzle_diam = 0.4
;   layer_height = 0.12
;   width_multiplier = 1.2
;   filament_diam = 1.75
;   ret_d_start = 4.0
;   ret_d_step = 0.5
;   ret_z_hop = 0.12
;   ret_spd_start = 20
;   ret_spd_step = 10
;   ret_temp_start = 190
;   ret_temp_step = -5
;   ret_temp_step_h = 41
;   square_size = 3
;   max_tile_span = 12
;   brim_width = 1
;   steps_x = 7
;   steps_y = 5
;   steps_z = 1
;   margin_x = 20
;   margin_y = 50
;   gcode_intro_abl = 
;   gcode_intro_prime = 
;     G92 E0 ; Reset Extruder
;     G1 Z2.0 F3000 ; Move Z Axis up little to prevent scratching of Heat Bed
;     G1 X10.1 Y20 Z0.28 F5000.0 ; Move to start position
;     G1 X10.1 Y200.0 Z0.28 F1500.0 E15 ; Draw the first line
;     G1 X10.4 Y200.0 Z0.28 F5000.0 ; Move to side a little
;     G1 X10.4 Y20 Z0.28 F1500.0 E30 ; Draw the second line
;     G92 E0 ; Reset Extruder
;     G1 Z2.0 F3000 ; Move Z Axis up little to prevent scratching of Heat Bed
;     
;   coord_z_hop = 0.24
;   e_per_mm = 0.022662513741243766
;   last_ret_d = 0
;   line_width = 0.48
;   mm3_per_mm = 0.054509733552923254
;   nozzle_area = 0.12566370614359174
;   ret_d = 4.0
;   tile_x_start = 20
;   tile_x_step = 12
;   tile_y_start = 50
;   tile_y_step = 12
;   ret_d_steps = [4.0, 4.5, 5.0, 5.5, 6.0, 6.5]
;   ret_spd_steps = [20, 30, 40, 50, 60, 70]
;   temp_steps = []
; ################

M73 P0 R86
M73 Q0 S86
M201 X500 Y500 Z100 E5000
M203 X500 Y500 Z5 E25 ; sets maximum feedrates, mm/sec
M205 S0 T0 ; sets the minimum extruding and travel feed rate, mm/sec
M107
M83  ; extruder relative mode
M104 S190 ; set extruder temp
M140 S50    ; set bed temp
M190 S50    ; wait for bed temp
M109 S190 ; wait for extruder temp
G28 ; home all axes


G92 E0 ; Reset Extruder
G1 Z2.0 F3000 ; Move Z Axis up little to prevent scratching of Heat Bed
G1 X10.1 Y20 Z0.28 F5000.0 ; Move to start position
G1 X10.1 Y200.0 Z0.28 F1500.0 E15 ; Draw the first line
G1 X10.4 Y200.0 Z0.28 F5000.0 ; Move to side a little
G1 X10.4 Y20 Z0.28 F1500.0 E30 ; Draw the second line
G92 E0 ; Reset Extruder
G1 Z2.0 F3000 ; Move Z Axis up little to prevent scratching of Heat Bed

M221 S95
M900 K30; Filament gcode
G21 ; set units to millimeters
G90 ; use absolute coordinates
M83 ; use relative distances for extrusion


G1 Z0.24 F300 ; z-hop
G1 E-4.0 F1200 ; retract

; -----------------
; Z tile layer 0
; nozzle_temp = 190
M104 S190 ; nozzle temp


;AFTER_LAYER_CHANGE
;0.12
M107 ; fan speed (or fan off)
G1 Z0.12 F300 ; change the z-coord

; tile x=0 y=0 z=0
; tile pos x=20 y=50 z=0.0
; retraction settings:
;     distance = 4.0 mm
;     speed    = 20 mm/s
; nozzle_temp  = 190

G1 X19 Y49 F9000 ; travel
G1 Z0.12 F300; z-unhop
G1 E4.0 F1200 ; deretract
G1 X19.000000 Y54.000000 E0.113313 F1200.000000
G1 X19.480000 Y54.000000 E0.010878 F1200.000000
G1 X19.480000 Y49.000000 E0.113313 F1200.000000
G1 X19.960000 Y49.000000 E0.010878 F1200.000000
G1 X19.960000 Y54.000000 E0.113313 F1200.000000
G1 X20.440000 Y54.000000 E0.010878 F1200.000000
G1 X20.440000 Y49.000000 E0.113313 F1200.000000
G1 X20.920000 Y49.000000 E0.010878 F1200.000000
G1 X20.920000 Y54.000000 E0.113313 F1200.000000
G1 X21.400000 Y54.000000 E0.010878 F1200.000000
G1 X21.400000 Y49.000000 E0.113313 F1200.000000
G1 X21.880000 Y49.000000 E0.010878 F1200.000000
G1 X21.880000 Y54.000000 E0.113313 F1200.000000
G1 X22.360000 Y54.000000 E0.010878 F1200.000000
G1 X22.360000 Y49.000000 E0.113313 F1200.000000
G1 X22.840000 Y49.000000 E0.010878 F1200.000000
G1 X22.840000 Y54.000000 E0.113313 F1200.000000
G1 X23.320000 Y54.000000 E0.010878 F1200.000000
G1 X23.320000 Y49.000000 E0.113313 F1200.000000

G1 Z0.24 F300 ; z-hop
G1 E-4.0 F1200 ; retract

; tile x=1 y=0 z=0
; tile pos x=32 y=50 z=0.0
; retraction settings:
;     distance = 4.5 mm
;     speed    = 20 mm/s
; nozzle_temp  = 190

G1 X31 Y49 F9000 ; travel
G1 Z0.12 F300; z-unhop
G1 E4.0 F1200 ; deretract
G1 X31.000000 Y54.000000 E0.113313 F1200.000000
G1 X31.480000 Y54.000000 E0.010878 F1200.000000
G1 X31.480000 Y49.000000 E0.113313 F1200.000000
G1 X31.960000 Y49.000000 E0.010878 F1200.000000
G1 X31.960000 Y54.000000 E0.113313 F1200.000000
G1 X32.440000 Y54.000000 E0.010878 F1200.000000
G1 X32.440000 Y49.000000 E0.113313 F1200.000000
G1 X32.920000 Y49.000000 E0.010878 F1200.000000
G1 X32.920000 Y54.000000 E0.113313 F1200.000000
G1 X33.400000 Y54.000000 E0.010878 F1200.000000
G1 X33.400000 Y49.000000 E0.113313 F1200.000000
G1 X33.880000 Y49.000000 E0.010878 F1200.000000
G1 X33.880000 Y54.000000 E0.113313 F1200.000000
G1 X34.360000 Y54.000000 E0.010878 F1200.000000
G1 X34.360000 Y49.000000 E0.113313 F1200.000000
G1 X34.840000 Y49.000000 E0.010878 F1200.000000
G1 X34.840000 Y54.000000 E0.113313 F1200.000000
G1 X35.320000 Y54.000000 E0.010878 F1200.000000
G1 X35.320000 Y49.000000 E0.113313 F1200.000000

G1 Z0.24 F300 ; z-hop
G1 E-4.5 F1200 ; retract

; tile x=2 y=0 z=0
; tile pos x=44 y=50 z=0.0
; retraction settings:
;     distance = 5.0 mm
;     speed    = 20 mm/s
; nozzle_temp  = 190

G1 X43 Y49 F9000 ; travel
G1 Z0.12 F300; z-unhop
G1 E4.5 F1200 ; deretract
G1 X43.000000 Y54.000000 E0.113313 F1200.000000
G1 X43.480000 Y54.000000 E0.010878 F1200.000000
G1 X43.480000 Y49.000000 E0.113313 F1200.000000
G1 X43.960000 Y49.000000 E0.010878 F1200.000000
G1 X43.960000 Y54.000000 E0.113313 F1200.000000
G1 X44.440000 Y54.000000 E0.010878 F1200.000000
G1 X44.440000 Y49.000000 E0.113313 F1200.000000
G1 X44.920000 Y49.000000 E0.010878 F1200.000000
G1 X44.920000 Y54.000000 E0.113313 F1200.000000
G1 X45.400000 Y54.000000 E0.010878 F1200.000000
G1 X45.400000 Y49.000000 E0.113313 F1200.000000
G1 X45.880000 Y49.000000 E0.010878 F1200.000000
G1 X45.880000 Y54.000000 E0.113313 F1200.000000
G1 X46.360000 Y54.000000 E0.010878 F1200.000000
G1 X46.360000 Y49.000000 E0.113313 F1200.000000
G1 X46.840000 Y49.000000 E0.010878 F1200.000000
G1 X46.840000 Y54.000000 E0.113313 F1200.000000
G1 X47.320000 Y54.000000 E0.010878 F1200.000000
G1 X47.320000 Y49.000000 E0.113313 F1200.000000

G1 Z0.24 F300 ; z-hop
G1 E-5.0 F1200 ; retract

; tile x=3 y=0 z=0
; tile pos x=56 y=50 z=0.0
; retraction settings:
;     distance = 5.5 mm
;     speed    = 20 mm/s
; nozzle_temp  = 190

G1 X55 Y49 F9000 ; travel
G1 Z0.12 F300; z-unhop
G1 E5.0 F1200 ; deretract
G1 X55.000000 Y54.000000 E0.113313 F1200.000000
G1 X55.480000 Y54.000000 E0.010878 F1200.000000
G1 X55.480000 Y49.000000 E0.113313 F1200.000000
G1 X55.960000 Y49.000000 E0.010878 F1200.000000
G1 X55.960000 Y54.000000 E0.113313 F1200.000000
G1 X56.440000 Y54.000000 E0.010878 F1200.000000
G1 X56.440000 Y49.000000 E0.113313 F1200.000000
G1 X56.920000 Y49.000000 E0.010878 F1200.000000
G1 X56.920000 Y54.000000 E0.113313 F1200.000000
G1 X57.400000 Y54.000000 E0.010878 F1200.000000
G1 X57.400000 Y49.000000 E0.113313 F1200.000000
G1 X57.880000 Y49.000000 E0.010878 F1200.000000
G1 X57.880000 Y54.000000 E0.113313 F1200.000000
G1 X58.360000 Y54.000000 E0.010878 F1200.000000
G1 X58.360000 Y49.000000 E0.113313 F1200.000000
G1 X58.840000 Y49.000000 E0.010878 F1200.000000
G1 X58.840000 Y54.000000 E0.113313 F1200.000000
G1 X59.320000 Y54.000000 E0.010878 F1200.000000
G1 X59.320000 Y49.000000 E0.113313 F1200.000000

G1 Z0.24 F300 ; z-hop
G1 E-5.5 F1200 ; retract

; tile x=4 y=0 z=0
; tile pos x=68 y=50 z=0.0
; retraction settings:
;     distance = 6.0 mm
;     speed    = 20 mm/s
; nozzle_temp  = 190

G1 X67 Y49 F9000 ; travel
G1 Z0.12 F300; z-unhop
G1 E5.5 F1200 ; deretract
G1 X67.000000 Y54.000000 E0.113313 F1200.000000
G1 X67.480000 Y54.000000 E0.010878 F1200.000000
G1 X67.480000 Y49.000000 E0.113313 F1200.000000
G1 X67.960000 Y49.000000 E0.010878 F1200.000000
G1 X67.960000 Y54.000000 E0.113313 F1200.000000
G1 X68.440000 Y54.000000 E0.010878 F1200.000000
G1 X68.440000 Y49.000000 E0.113313 F1200.000000
G1 X68.920000 Y49.000000 E0.010878 F1200.000000
G1 X68.920000 Y54.000000 E0.113313 F1200.000000
G1 X69.400000 Y54.000000 E0.010878 F1200.000000
G1 X69.400000 Y49.000000 E0.113313 F1200.000000
G1 X69.880000 Y49.000000 E0.010878 F1200.000000
G1 X69.880000 Y54.000000 E0.113313 F1200.000000
G1 X70.360000 Y54.000000 E0.010878 F1200.000000
G1 X70.360000 Y49.000000 E0.113313 F1200.000000
G1 X70.840000 Y49.000000 E0.010878 F1200.000000
G1 X70.840000 Y54.000000 E0.113313 F1200.000000
G1 X71.320000 Y54.000000 E0.010878 F1200.000000
G1 X71.320000 Y49.000000 E0.113313 F1200.000000

G1 Z0.24 F300 ; z-hop
G1 E-6.0 F1200 ; retract

; tile x=5 y=0 z=0
; tile pos x=80 y=50 z=0.0
; retraction settings:
;     distance = 6.5 mm
;     speed    = 20 mm/s
; nozzle_temp  = 190

G1 X79 Y49 F9000 ; travel
G1 Z0.12 F300; z-unhop
G1 E6.0 F1200 ; deretract
G1 X79.000000 Y54.000000 E0.113313 F1200.000000
G1 X79.480000 Y54.000000 E0.010878 F1200.000000
G1 X79.480000 Y49.000000 E0.113313 F1200.000000
G1 X79.960000 Y49.000000 E0.010878 F1200.000000
G1 X79.960000 Y54.000000 E0.113313 F1200.000000
G1 X80.440000 Y54.000000 E0.010878 F1200.000000
G1 X80.440000 Y49.000000 E0.113313 F1200.000000
G1 X80.920000 Y49.000000 E0.010878 F1200.000000
G1 X80.920000 Y54.000000 E0.113313 F1200.000000
G1 X81.400000 Y54.000000 E0.010878 F1200.000000
G1 X81.400000 Y49.000000 E0.113313 F1200.000000
G1 X81.880000 Y49.000000 E0.010878 F1200.000000
G1 X81.880000 Y54.000000 E0.113313 F1200.000000
G1 X82.360000 Y54.000000 E0.010878 F1200.000000
G1 X82.360000 Y49.000000 E0.113313 F1200.000000
G1 X82.840000 Y49.000000 E0.010878 F1200.000000
G1 X82.840000 Y54.000000 E0.113313 F1200.000000
G1 X83.320000 Y54.000000 E0.010878 F1200.000000
G1 X83.320000 Y49.000000 E0.113313 F1200.000000

G1 Z0.24 F300 ; z-hop
G1 E-6.5 F1200 ; retract

; tile x=6 y=0 z=0
; tile pos x=92 y=50 z=0.0
; retraction settings:
;     distance = 7.0 mm
;     speed    = 20 mm/s
; nozzle_temp  = 190

G1 X91 Y49 F9000 ; travel
G1 Z0.12 F300; z-unhop
G1 E6.5 F1200 ; deretract
G1 X91.000000 Y54.000000 E0.113313 F1200.000000
G1 X91.480000 Y54.000000 E0.010878 F1200.000000
G1 X91.480000 Y49.000000 E0.113313 F1200.000000
G1 X91.960000 Y49.000000 E0.010878 F1200.000000
G1 X91.960000 Y54.000000 E0.113313 F1200.000000
G1 X92.440000 Y54.000000 E0.010878 F1200.000000
G1 X92.440000 Y49.000000 E0.113313 F1200.000000
G1 X92.920000 Y49.000000 E0.010878 F1200.000000
G1 X92.920000 Y54.000000 E0.113313 F1200.000000
G1 X93.400000 Y54.000000 E0.010878 F1200.000000
G1 X93.400000 Y49.000000 E0.113313 F1200.000000
G1 X93.880000 Y49.000000 E0.010878 F1200.000000
G1 X93.880000 Y54.000000 E0.113313 F1200.000000
G1 X94.360000 Y54.000000 E0.010878 F1200.000000
G1 X94.360000 Y49.000000 E0.113313 F1200.000000
G1 X94.840000 Y49.000000 E0.010878 F1200.000000
G1 X94.840000 Y54.000000 E0.113313 F1200.000000
G1 X95.320000 Y54.000000 E0.010878 F1200.000000
G1 X95.320000 Y49.000000 E0.113313 F1200.000000

G1 Z0.24 F300 ; z-hop
G1 E-7.0 F1200 ; retract

; tile x=0 y=1 z=0
; tile pos x=20 y=62 z=0.0
; retraction settings:
;     distance = 4.0 mm
;     speed    = 30 mm/s
; nozzle_temp  = 190

G1 X19 Y61 F9000 ; travel
G1 Z0.12 F300; z-unhop
G1 E7.0 F1800 ; deretract
G1 X19.000000 Y66.000000 E0.113313 F1200.000000
G1 X19.480000 Y66.000000 E0.010878 F1200.000000
G1 X19.480000 Y61.000000 E0.113313 F1200.000000
G1 X19.960000 Y61.000000 E0.010878 F1200.000000
G1 X19.960000 Y66.000000 E0.113313 F1200.000000
G1 X20.440000 Y66.000000 E0.010878 F1200.000000
G1 X20.440000 Y61.000000 E0.113313 F1200.000000
G1 X20.920000 Y61.000000 E0.010878 F1200.000000
G1 X20.920000 Y66.000000 E0.113313 F1200.000000
G1 X21.400000 Y66.000000 E0.010878 F1200.000000
G1 X21.400000 Y61.000000 E0.113313 F1200.000000
G1 X21.880000 Y61.000000 E0.010878 F1200.000000
G1 X21.880000 Y66.000000 E0.113313 F1200.000000
G1 X22.360000 Y66.000000 E0.010878 F1200.000000
G1 X22.360000 Y61.000000 E0.113313 F1200.000000
G1 X22.840000 Y61.000000 E0.010878 F1200.000000
G1 X22.840000 Y66.000000 E0.113313 F1200.000000
G1 X23.320000 Y66.000000 E0.010878 F1200.000000
G1 X23.320000 Y61.000000 E0.113313 F1200.000000

G1 Z0.24 F300 ; z-hop
G1 E-4.0 F1800 ; retract

; tile x=1 y=1 z=0
; tile pos x=32 y=62 z=0.0
; retraction settings:
;     distance = 4.5 mm
;     speed    = 30 mm/s
; nozzle_temp  = 190

G1 X31 Y61 F9000 ; travel
G1 Z0.12 F300; z-unhop
G1 E4.0 F1800 ; deretract
G1 X31.000000 Y66.000000 E0.113313 F1200.000000
G1 X31.480000 Y66.000000 E0.010878 F1200.000000
G1 X31.480000 Y61.000000 E0.113313 F1200.000000
G1 X31.960000 Y61.000000 E0.010878 F1200.000000
G1 X31.960000 Y66.000000 E0.113313 F1200.000000
G1 X32.440000 Y66.000000 E0.010878 F1200.000000
G1 X32.440000 Y61.000000 E0.113313 F1200.000000
G1 X32.920000 Y61.000000 E0.010878 F1200.000000
G1 X32.920000 Y66.000000 E0.113313 F1200.000000
G1 X33.400000 Y66.000000 E0.010878 F1200.000000
G1 X33.400000 Y61.000000 E0.113313 F1200.000000
G1 X33.880000 Y61.000000 E0.010878 F1200.000000
G1 X33.880000 Y66.000000 E0.113313 F1200.000000
G1 X34.360000 Y66.000000 E0.010878 F1200.000000
G1 X34.360000 Y61.000000 E0.113313 F1200.000000
G1 X34.840000 Y61.000000 E0.010878 F1200.000000
G1 X34.840000 Y66.000000 E0.113313 F1200.000000
G1 X35.320000 Y66.000000 E0.010878 F1200.000000
G1 X35.320000 Y61.000000 E0.113313 F1200.000000

G1 Z0.24 F300 ; z-hop
G1 E-4.5 F1800 ; retract

; tile x=2 y=1 z=0
; tile pos x=44 y=62 z=0.0
; retraction settings:
;     distance = 5.0 mm
;     speed    = 30 mm/s
; nozzle_temp  = 190

G1 X43 Y61 F9000 ; travel
G1 Z0.12 F300; z-unhop
G1 E4.5 F1800 ; deretract
G1 X43.000000 Y66.000000 E0.113313 F1200.000000
G1 X43.480000 Y66.000000 E0.010878 F1200.000000
G1 X43.480000 Y61.000000 E0.113313 F1200.000000
G1 X43.960000 Y61.000000 E0.010878 F1200.000000
G1 X43.960000 Y66.000000 E0.113313 F1200.000000
G1 X44.440000 Y66.000000 E0.010878 F1200.000000
G1 X44.440000 Y61.000000 E0.113313 F1200.000000
G1 X44.920000 Y61.000000 E0.010878 F1200.000000
G1 X44.920000 Y66.000000 E0.113313 F1200.000000
G1 X45.400000 Y66.000000 E0.010878 F1200.000000
G1 X45.400000 Y61.000000 E0.113313 F1200.000000
G1 X45.880000 Y61.000000 E0.010878 F1200.000000
G1 X45.880000 Y66.000000 E0.113313 F1200.000000
G1 X46.360000 Y66.000000 E0.010878 F1200.000000
G1 X46.360000 Y61.000000 E0.113313 F1200.000000
G1 X46.840000 Y61.000000 E0.010878 F1200.000000
G1 X46.840000 Y66.000000 E0.113313 F1200.000000
G1 X47.320000 Y66.000000 E0.010878 F1200.000000
G1 X47.320000 Y61.000000 E0.113313 F1200.000000

G1 Z0.24 F300 ; z-hop
G1 E-5.0 F1800 ; retract

; tile x=3 y=1 z=0
; tile pos x=56 y=62 z=0.0
; retraction settings:
;     distance = 5.5 mm
;     speed    = 30 mm/s
; nozzle_temp  = 190

G1 X55 Y61 F9000 ; travel
G1 Z0.12 F300; z-unhop
G1 E5.0 F1800 ; deretract
