; #############################################
; generated by retraction-seeker.py
; http://github.com/volca02/retraction-seeker/
; #############################################
; 
; NOTE: no machine.json config file found - skipping
; ==== retraction map ====
; 
;  Y (retr. speed)
;  ^ 
; 0,0 > X (retr. distance)
; 
; [ 5] 60.00 mm/s :  [ 1] .. 4.0 mm .. [ 2] .. 4.5 mm .. [ 3] .. 5.0 mm .. [ 4] .. 5.5 mm .. [ 5] .. 6.0 mm .. [ 6] .. 6.5 mm .. [ 7]
; [ 4] 50.00 mm/s :  [ 1] .. 4.0 mm .. [ 2] .. 4.5 mm .. [ 3] .. 5.0 mm .. [ 4] .. 5.5 mm .. [ 5] .. 6.0 mm .. [ 6] .. 6.5 mm .. [ 7]
; [ 3] 40.00 mm/s :  [ 1] .. 4.0 mm .. [ 2] .. 4.5 mm .. [ 3] .. 5.0 mm .. [ 4] .. 5.5 mm .. [ 5] .. 6.0 mm .. [ 6] .. 6.5 mm .. [ 7]
; [ 2] 30.00 mm/s :  [ 1] .. 4.0 mm .. [ 2] .. 4.5 mm .. [ 3] .. 5.0 mm .. [ 4] .. 5.5 mm .. [ 5] .. 6.0 mm .. [ 6] .. 6.5 mm .. [ 7]
; [ 1] 20.00 mm/s :  [ 1] .. 4.0 mm .. [ 2] .. 4.5 mm .. [ 3] .. 5.0 mm .. [ 4] .. 5.5 mm .. [ 5] .. 6.0 mm .. [ 6] .. 6.5 mm .. [ 7]
; 
; Z: (print temp.)
; [ 1] - 0.00 mm - 180.00 C
; ========================


;
; PROLOGUE
; ################
; settings:
;   accel_x = 500
;   accel_y = 500
;   accel_z = 100
;   accel_e = 5000
;   feed_x = 500
;   feed_y = 500
;   feed_z = 5
;   feed_z_m = 300
;   feed_z_ret = 300
;   feed_e = 25
;   temp_bed = 50
;   temp_nozzle = 180
;   fan_spd_initial = 0
;   fan_spd_other = 169
;   feed_travel = 9000
;   feed_print = 3000
;   feed_print_outer = 3000
;   feed_print_first = 1200
;   bed_size_x = 235
;   bed_size_y = 235
;   nozzle_diam = 0.4
;   layer_height = 0.12
;   width_multiplier = 1.0
;   filament_diam = 1.75
;   ret_d_start = 4.0
;   ret_d_step = 0.5
;   ret_z_hop = 0.12
;   ret_spd_start = 20
;   ret_spd_step = 10
;   ret_temp_start = 180
;   ret_temp_step = -5
;   ret_temp_step_h = 41
;   square_size = 3
;   max_tile_span = 12
;   brim_width = 1
;   steps_x = 7
;   steps_y = 5
;   steps_z = 1
;   margin_x = 20
;   margin_y = 50
;   gcode_intro_abl = 
;   gcode_intro_prime = 
;     G92 E0 ; Reset Extruder
;     G1 Z2.0 F3000 ; Move Z Axis up little to prevent scratching of Heat Bed
;     G1 X10.1 Y20 Z0.28 F5000.0 ; Move to start position
;     G1 X10.1 Y200.0 Z0.28 F1500.0 E15 ; Draw the first line
;     G1 X10.4 Y200.0 Z0.28 F5000.0 ; Move to side a little
;     G1 X10.4 Y20 Z0.28 F1500.0 E30 ; Draw the second line
;     G92 E0 ; Reset Extruder
;     G1 Z2.0 F3000 ; Move Z Axis up little to prevent scratching of Heat Bed
;     
;   coord_z_hop = 0.24
;   e_per_mm = 0.018671297535706604
;   last_ret_d = 0
;   line_width = 0.4
;   mm3_per_mm = 0.044909733552923256
;   nozzle_area = 0.12566370614359174
;   ret_d = 4.0
;   tile_x_start = 20
;   tile_x_step = 12
;   tile_y_start = 50
;   tile_y_step = 12
;   ret_d_steps = [4.0, 4.5, 5.0, 5.5, 6.0, 6.5]
;   ret_spd_steps = [20, 30, 40, 50, 60, 70]
;   temp_steps = []
; ################

M73 P0 R86
M73 Q0 S86
M201 X500 Y500 Z100 E5000
M203 X500 Y500 Z5 E25 ; sets maximum feedrates, mm/sec
M205 S0 T0 ; sets the minimum extruding and travel feed rate, mm/sec
M107
M83  ; extruder relative mode
M104 S180 ; set extruder temp
M140 S50    ; set bed temp
M190 S50    ; wait for bed temp
M109 S180 ; wait for extruder temp
G28 ; home all axes


G92 E0 ; Reset Extruder
G1 Z2.0 F3000 ; Move Z Axis up little to prevent scratching of Heat Bed
G1 X10.1 Y20 Z0.28 F5000.0 ; Move to start position
G1 X10.1 Y200.0 Z0.28 F1500.0 E15 ; Draw the first line
G1 X10.4 Y200.0 Z0.28 F5000.0 ; Move to side a little
G1 X10.4 Y20 Z0.28 F1500.0 E30 ; Draw the second line
G92 E0 ; Reset Extruder
G1 Z2.0 F3000 ; Move Z Axis up little to prevent scratching of Heat Bed

M221 S95
M900 K30; Filament gcode
G21 ; set units to millimeters
G90 ; use absolute coordinates
M83 ; use relative distances for extrusion


G1 Z0.24 F300 ; z-hop
G1 E-4.0 F1200 ; retract

; -----------------
; Z tile layer 0
; nozzle_temp = 180
M104 S180 ; nozzle temp


;AFTER_LAYER_CHANGE
;0.12
M107 ; fan speed (or fan off)
G1 Z0.12 F300 ; change the z-coord

; tile x=0 y=0 z=0
; tile pos x=20 y=50 z=0.0
; retraction settings:
;     distance = 4.0 mm
;     speed    = 20 mm/s
; nozzle_temp  = 180

G1 X19 Y49 F9000 ; travel
G1 Z0.12 F300; z-unhop
G1 E4.0 F1200 ; deretract
G1 X19.000000 Y54.000000 E0.093356 F1200.000000
G1 X19.400000 Y54.000000 E0.007469 F1200.000000
G1 X19.400000 Y49.000000 E0.093356 F1200.000000
G1 X19.800000 Y49.000000 E0.007469 F1200.000000
G1 X19.800000 Y54.000000 E0.093356 F1200.000000
G1 X20.200000 Y54.000000 E0.007469 F1200.000000
G1 X20.200000 Y49.000000 E0.093356 F1200.000000
G1 X20.600000 Y49.000000 E0.007469 F1200.000000
G1 X20.600000 Y54.000000 E0.093356 F1200.000000
G1 X21.000000 Y54.000000 E0.007469 F1200.000000
G1 X21.000000 Y49.000000 E0.093356 F1200.000000
G1 X21.400000 Y49.000000 E0.007469 F1200.000000
G1 X21.400000 Y54.000000 E0.093356 F1200.000000
G1 X21.800000 Y54.000000 E0.007469 F1200.000000
G1 X21.800000 Y49.000000 E0.093356 F1200.000000
G1 X22.200000 Y49.000000 E0.007469 F1200.000000
G1 X22.200000 Y54.000000 E0.093356 F1200.000000
G1 X22.600000 Y54.000000 E0.007469 F1200.000000
G1 X22.600000 Y49.000000 E0.093356 F1200.000000
G1 X23.000000 Y49.000000 E0.007469 F1200.000000
G1 X23.000000 Y54.000000 E0.093356 F1200.000000
G1 X23.400000 Y54.000000 E0.007469 F1200.000000
G1 X23.400000 Y49.000000 E0.093356 F1200.000000

G1 Z0.24 F300 ; z-hop
G1 E-4.0 F1200 ; retract

; tile x=1 y=0 z=0
; tile pos x=32 y=50 z=0.0
; retraction settings:
;     distance = 4.5 mm
;     speed    = 20 mm/s
; nozzle_temp  = 180

G1 X31 Y49 F9000 ; travel
G1 Z0.12 F300; z-unhop
G1 E4.0 F1200 ; deretract
G1 X31.000000 Y54.000000 E0.093356 F1200.000000
G1 X31.400000 Y54.000000 E0.007469 F1200.000000
G1 X31.400000 Y49.000000 E0.093356 F1200.000000
G1 X31.800000 Y49.000000 E0.007469 F1200.000000
G1 X31.800000 Y54.000000 E0.093356 F1200.000000
G1 X32.200000 Y54.000000 E0.007469 F1200.000000
G1 X32.200000 Y49.000000 E0.093356 F1200.000000
G1 X32.600000 Y49.000000 E0.007469 F1200.000000
G1 X32.600000 Y54.000000 E0.093356 F1200.000000
G1 X33.000000 Y54.000000 E0.007469 F1200.000000
G1 X33.000000 Y49.000000 E0.093356 F1200.000000
G1 X33.400000 Y49.000000 E0.007469 F1200.000000
G1 X33.400000 Y54.000000 E0.093356 F1200.000000
G1 X33.800000 Y54.000000 E0.007469 F1200.000000
G1 X33.800000 Y49.000000 E0.093356 F1200.000000
G1 X34.200000 Y49.000000 E0.007469 F1200.000000
G1 X34.200000 Y54.000000 E0.093356 F1200.000000
G1 X34.600000 Y54.000000 E0.007469 F1200.000000
G1 X34.600000 Y49.000000 E0.093356 F1200.000000
G1 X35.000000 Y49.000000 E0.007469 F1200.000000
G1 X35.000000 Y54.000000 E0.093356 F1200.000000
G1 X35.400000 Y54.000000 E0.007469 F1200.000000
G1 X35.400000 Y49.000000 E0.093356 F1200.000000

G1 Z0.24 F300 ; z-hop
G1 E-4.5 F1200 ; retract

; tile x=2 y=0 z=0
; tile pos x=44 y=50 z=0.0
; retraction settings:
;     distance = 5.0 mm
;     speed    = 20 mm/s
; nozzle_temp  = 180

G1 X43 Y49 F9000 ; travel
G1 Z0.12 F300; z-unhop
G1 E4.5 F1200 ; deretract
G1 X43.000000 Y54.000000 E0.093356 F1200.000000
G1 X43.400000 Y54.000000 E0.007469 F1200.000000
G1 X43.400000 Y49.000000 E0.093356 F1200.000000
G1 X43.800000 Y49.000000 E0.007469 F1200.000000
G1 X43.800000 Y54.000000 E0.093356 F1200.000000
G1 X44.200000 Y54.000000 E0.007469 F1200.000000
G1 X44.200000 Y49.000000 E0.093356 F1200.000000
G1 X44.600000 Y49.000000 E0.007469 F1200.000000
G1 X44.600000 Y54.000000 E0.093356 F1200.000000
G1 X45.000000 Y54.000000 E0.007469 F1200.000000
G1 X45.000000 Y49.000000 E0.093356 F1200.000000
G1 X45.400000 Y49.000000 E0.007469 F1200.000000
G1 X45.400000 Y54.000000 E0.093356 F1200.000000
G1 X45.800000 Y54.000000 E0.007469 F1200.000000
G1 X45.800000 Y49.000000 E0.093356 F1200.000000
G1 X46.200000 Y49.000000 E0.007469 F1200.000000
G1 X46.200000 Y54.000000 E0.093356 F1200.000000
G1 X46.600000 Y54.000000 E0.007469 F1200.000000
G1 X46.600000 Y49.000000 E0.093356 F1200.000000
G1 X47.000000 Y49.000000 E0.007469 F1200.000000
G1 X47.000000 Y54.000000 E0.093356 F1200.000000
G1 X47.400000 Y54.000000 E0.007469 F1200.000000
G1 X47.400000 Y49.000000 E0.093356 F1200.000000

G1 Z0.24 F300 ; z-hop
G1 E-5.0 F1200 ; retract

; tile x=3 y=0 z=0
; tile pos x=56 y=50 z=0.0
; retraction settings:
;     distance = 5.5 mm
;     speed    = 20 mm/s
; nozzle_temp  = 180

G1 X55 Y49 F9000 ; travel
G1 Z0.12 F300; z-unhop
G1 E5.0 F1200 ; deretract
G1 X55.000000 Y54.000000 E0.093356 F1200.000000
G1 X55.400000 Y54.000000 E0.007469 F1200.000000
G1 X55.400000 Y49.000000 E0.093356 F1200.000000
G1 X55.800000 Y49.000000 E0.007469 F1200.000000
G1 X55.800000 Y54.000000 E0.093356 F1200.000000
G1 X56.200000 Y54.000000 E0.007469 F1200.000000
G1 X56.200000 Y49.000000 E0.093356 F1200.000000
G1 X56.600000 Y49.000000 E0.007469 F1200.000000
G1 X56.600000 Y54.000000 E0.093356 F1200.000000
G1 X57.000000 Y54.000000 E0.007469 F1200.000000
G1 X57.000000 Y49.000000 E0.093356 F1200.000000
G1 X57.400000 Y49.000000 E0.007469 F1200.000000
G1 X57.400000 Y54.000000 E0.093356 F1200.000000
G1 X57.800000 Y54.000000 E0.007469 F1200.000000
G1 X57.800000 Y49.000000 E0.093356 F1200.000000
G1 X58.200000 Y49.000000 E0.007469 F1200.000000
G1 X58.200000 Y54.000000 E0.093356 F1200.000000
G1 X58.600000 Y54.000000 E0.007469 F1200.000000
G1 X58.600000 Y49.000000 E0.093356 F1200.000000
G1 X59.000000 Y49.000000 E0.007469 F1200.000000
G1 X59.000000 Y54.000000 E0.093356 F1200.000000
G1 X59.400000 Y54.000000 E0.007469 F1200.000000
G1 X59.400000 Y49.000000 E0.093356 F1200.000000

G1 Z0.24 F300 ; z-hop
G1 E-5.5 F1200 ; retract

; tile x=4 y=0 z=0
; tile pos x=68 y=50 z=0.0
; retraction settings:
;     distance = 6.0 mm
;     speed    = 20 mm/s
; nozzle_temp  = 180

G1 X67 Y49 F9000 ; travel
G1 Z0.12 F300; z-unhop
G1 E5.5 F1200 ; deretract
G1 X67.000000 Y54.000000 E0.093356 F1200.000000
G1 X67.400000 Y54.000000 E0.007469 F1200.000000
G1 X67.400000 Y49.000000 E0.093356 F1200.000000
G1 X67.800000 Y49.000000 E0.007469 F1200.000000
G1 X67.800000 Y54.000000 E0.093356 F1200.000000
G1 X68.200000 Y54.000000 E0.007469 F1200.000000
G1 X68.200000 Y49.000000 E0.093356 F1200.000000
G1 X68.600000 Y49.000000 E0.007469 F1200.000000
G1 X68.600000 Y54.000000 E0.093356 F1200.000000
G1 X69.000000 Y54.000000 E0.007469 F1200.000000
G1 X69.000000 Y49.000000 E0.093356 F1200.000000
G1 X69.400000 Y49.000000 E0.007469 F1200.000000
G1 X69.400000 Y54.000000 E0.093356 F1200.000000
G1 X69.800000 Y54.000000 E0.007469 F1200.000000
G1 X69.800000 Y49.000000 E0.093356 F1200.000000
G1 X70.200000 Y49.000000 E0.007469 F1200.000000
G1 X70.200000 Y54.000000 E0.093356 F1200.000000
G1 X70.600000 Y54.000000 E0.007469 F1200.000000
G1 X70.600000 Y49.000000 E0.093356 F1200.000000
G1 X71.000000 Y49.000000 E0.007469 F1200.000000
G1 X71.000000 Y54.000000 E0.093356 F1200.000000
G1 X71.400000 Y54.000000 E0.007469 F1200.000000
G1 X71.400000 Y49.000000 E0.093356 F1200.000000

G1 Z0.24 F300 ; z-hop
G1 E-6.0 F1200 ; retract

; tile x=5 y=0 z=0
; tile pos x=80 y=50 z=0.0
; retraction settings:
;     distance = 6.5 mm
;     speed    = 20 mm/s
; nozzle_temp  = 180

G1 X79 Y49 F9000 ; travel
G1 Z0.12 F300; z-unhop
G1 E6.0 F1200 ; deretract
G1 X79.000000 Y54.000000 E0.093356 F1200.000000
G1 X79.400000 Y54.000000 E0.007469 F1200.000000
G1 X79.400000 Y49.000000 E0.093356 F1200.000000
G1 X79.800000 Y49.000000 E0.007469 F1200.000000
G1 X79.800000 Y54.000000 E0.093356 F1200.000000
G1 X80.200000 Y54.000000 E0.007469 F1200.000000
G1 X80.200000 Y49.000000 E0.093356 F1200.000000
G1 X80.600000 Y49.000000 E0.007469 F1200.000000
G1 X80.600000 Y54.000000 E0.093356 F1200.000000
G1 X81.000000 Y54.000000 E0.007469 F1200.000000
G1 X81.000000 Y49.000000 E0.093356 F1200.000000
G1 X81.400000 Y49.000000 E0.007469 F1200.000000
G1 X81.400000 Y54.000000 E0.093356 F1200.000000
G1 X81.800000 Y54.000000 E0.007469 F1200.000000
G1 X81.800000 Y49.000000 E0.093356 F1200.000000
G1 X82.200000 Y49.000000 E0.007469 F1200.000000
G1 X82.200000 Y54.000000 E0.093356 F1200.000000
G1 X82.600000 Y54.000000 E0.007469 F1200.000000
G1 X82.600000 Y49.000000 E0.093356 F1200.000000
G1 X83.000000 Y49.000000 E0.007469 F1200.000000
G1 X83.000000 Y54.000000 E0.093356 F1200.000000
G1 X83.400000 Y54.000000 E0.007469 F1200.000000
G1 X83.400000 Y49.000000 E0.093356 F1200.000000

G1 Z0.24 F300 ; z-hop
G1 E-6.5 F1200 ; retract

; tile x=6 y=0 z=0
; tile pos x=92 y=50 z=0.0
; retraction settings:
;     distance = 7.0 mm
;     speed    = 20 mm/s
; nozzle_temp  = 180

G1 X91 Y49 F9000 ; travel
G1 Z0.12 F300; z-unhop
G1 E6.5 F1200 ; deretract
G1 X91.000000 Y54.000000 E0.093356 F1200.000000
G1 X91.400000 Y54.000000 E0.007469 F1200.000000
G1 X91.400000 Y49.000000 E0.093356 F1200.000000
G1 X91.800000 Y49.000000 E0.007469 F1200.000000
G1 X91.800000 Y54.000000 E0.093356 F1200.000000
G1 X92.200000 Y54.000000 E0.007469 F1200.000000
G1 X92.200000 Y49.000000 E0.093356 F1200.000000
G1 X92.600000 Y49.000000 E0.007469 F1200.000000
G1 X92.600000 Y54.000000 E0.093356 F1200.000000
G1 X93.000000 Y54.000000 E0.007469 F1200.000000
G1 X93.000000 Y49.000000 E0.093356 F1200.000000
G1 X93.400000 Y49.000000 E0.007469 F1200.000000
G1 X93.400000 Y54.000000 E0.093356 F1200.000000
G1 X93.800000 Y54.000000 E0.007469 F1200.000000
G1 X93.800000 Y49.000000 E0.093356 F1200.000000
G1 X94.200000 Y49.000000 E0.007469 F1200.000000
G1 X94.200000 Y54.000000 E0.093356 F1200.000000
G1 X94.600000 Y54.000000 E0.007469 F1200.000000
G1 X94.600000 Y49.000000 E0.093356 F1200.000000
G1 X95.000000 Y49.000000 E0.007469 F1200.000000
G1 X95.000000 Y54.000000 E0.093356 F1200.000000
G1 X95.400000 Y54.000000 E0.007469 F1200.000000
G1 X95.400000 Y49.000000 E0.093356 F1200.000000

G1 Z0.24 F300 ; z-hop
G1 E-7.0 F1200 ; retract

; tile x=0 y=1 z=0
; tile pos x=20 y=62 z=0.0
; retraction settings:
;     distance = 4.0 mm
;     speed    = 30 mm/s
; nozzle_temp  = 180

G1 X19 Y61 F9000 ; travel
G1 Z0.12 F300; z-unhop
G1 E7.0 F1800 ; deretract
G1 X19.000000 Y66.000000 E0.093356 F1200.000000
G1 X19.400000 Y66.000000 E0.007469 F1200.000000
G1 X19.400000 Y61.000000 E0.093356 F1200.000000
G1 X19.800000 Y61.000000 E0.007469 F1200.000000
G1 X19.800000 Y66.000000 E0.093356 F1200.000000
G1 X20.200000 Y66.000000 E0.007469 F1200.000000
G1 X20.200000 Y61.000000 E0.093356 F1200.000000
G1 X20.600000 Y61.000000 E0.007469 F1200.000000
G1 X20.600000 Y66.000000 E0.093356 F1200.000000
G1 X21.000000 Y66.000000 E0.007469 F1200.000000
G1 X21.000000 Y61.000000 E0.093356 F1200.000000
G1 X21.400000 Y61.000000 E0.007469 F1200.000000
G1 X21.400000 Y66.000000 E0.093356 F1200.000000
G1 X21.800000 Y66.000000 E0.007469 F1200.000000
G1 X21.800000 Y61.000000 E0.093356 F1200.000000
G1 X22.200000 Y61.000000 E0.007469 F1200.000000
G1 X22.200000 Y66.000000 E0.093356 F1200.000000
G1 X22.600000 Y66.000000 E0.007469 F1200.000000
G1 X22.600000 Y61.000000 E0.093356 F1200.000000
G1 X23.000000 Y61.000000 E0.007469 F1200.000000
G1 X23.000000 Y66.000000 E0.093356 F1200.000000
G1 X23.400000 Y66.000000 E0.007469 F1200.000000
G1 X23.400000 Y61.000000 E0.093356 F1200.000000

G1 Z0.24 F300 ; z-hop
G1 E-4.0 F1800 ; retract

; tile x=1 y=1 z=0
; tile pos x=32 y=62 z=0.0
; retraction settings:
;     distance = 4.5 mm
;     speed    = 30 mm/s
; nozzle_temp  = 180

G1 X31 Y61 F9000 ; travel
G1 Z0.12 F300; z-unhop
G1 E4.0 F1800 ; deretract
G1 X31.000000 Y66.000000 E0.093356 F1200.000000
G1 X31.400000 Y66.000000 E0.007469 F1200.000000
G1 X31.400000 Y61.000000 E0.093356 F1200.000000
G1 X31.800000 Y61.000000 E0.007469 F1200.000000
G1 X31.800000 Y66.000000 E0.093356 F1200.000000
G1 X32.200000 Y66.000000 E0.007469 F1200.000000
G1 X32.200000 Y61.000000 E0.093356 F1200.000000
G1 X32.600000 Y61.000000 E0.007469 F1200.000000
G1 X32.600000 Y66.000000 E0.093356 F1200.000000
G1 X33.000000 Y66.000000 E0.007469 F1200.000000
G1 X33.000000 Y61.000000 E0.093356 F1200.000000
G1 X33.400000 Y61.000000 E0.007469 F1200.000000
G1 X33.400000 Y66.000000 E0.093356 F1200.000000
G1 X33.800000 Y66.000000 E0.007469 F1200.000000
G1 X33.800000 Y61.000000 E0.093356 F1200.000000
G1 X34.200000 Y61.000000 E0.007469 F1200.000000
G1 X34.200000 Y66.000000 E0.093356 F1200.000000
