; #############################################
; generated by retraction-seeker.py
; http://github.com/volca02/retraction-seeker/
; #############################################
; 
; NOTE: no machine.json config file found - skipping
; ==== retraction map ====
; 
;  Y (retr. speed)
;  ^ 
; 0,0 > X (retr. distance)
; 
; [ 7] 65.00 mm/s :  [ 1] .. 3.0 mm .. [ 2] .. 3.2 mm .. [ 3] .. 3.4 mm .. [ 4] .. 3.6 mm .. [ 5] .. 3.8 mm .. [ 6] .. 4.0 mm .. [ 7] .. 4.2 mm .. [ 8] .. 4.4 mm .. [ 9] .. 4.6 mm .. [10] .. 4.8 mm .. [11] .. 5.0 mm .. [12] .. 5.2 mm .. [13] .. 5.4 mm .. [14] .. 5.6 mm .. [15] .. 5.8 mm .. [16] .. 6.0 mm .. [17]
; [ 6] 60.00 mm/s :  [ 1] .. 3.0 mm .. [ 2] .. 3.2 mm .. [ 3] .. 3.4 mm .. [ 4] .. 3.6 mm .. [ 5] .. 3.8 mm .. [ 6] .. 4.0 mm .. [ 7] .. 4.2 mm .. [ 8] .. 4.4 mm .. [ 9] .. 4.6 mm .. [10] .. 4.8 mm .. [11] .. 5.0 mm .. [12] .. 5.2 mm .. [13] .. 5.4 mm .. [14] .. 5.6 mm .. [15] .. 5.8 mm .. [16] .. 6.0 mm .. [17]
; [ 5] 55.00 mm/s :  [ 1] .. 3.0 mm .. [ 2] .. 3.2 mm .. [ 3] .. 3.4 mm .. [ 4] .. 3.6 mm .. [ 5] .. 3.8 mm .. [ 6] .. 4.0 mm .. [ 7] .. 4.2 mm .. [ 8] .. 4.4 mm .. [ 9] .. 4.6 mm .. [10] .. 4.8 mm .. [11] .. 5.0 mm .. [12] .. 5.2 mm .. [13] .. 5.4 mm .. [14] .. 5.6 mm .. [15] .. 5.8 mm .. [16] .. 6.0 mm .. [17]
; [ 4] 50.00 mm/s :  [ 1] .. 3.0 mm .. [ 2] .. 3.2 mm .. [ 3] .. 3.4 mm .. [ 4] .. 3.6 mm .. [ 5] .. 3.8 mm .. [ 6] .. 4.0 mm .. [ 7] .. 4.2 mm .. [ 8] .. 4.4 mm .. [ 9] .. 4.6 mm .. [10] .. 4.8 mm .. [11] .. 5.0 mm .. [12] .. 5.2 mm .. [13] .. 5.4 mm .. [14] .. 5.6 mm .. [15] .. 5.8 mm .. [16] .. 6.0 mm .. [17]
; [ 3] 45.00 mm/s :  [ 1] .. 3.0 mm .. [ 2] .. 3.2 mm .. [ 3] .. 3.4 mm .. [ 4] .. 3.6 mm .. [ 5] .. 3.8 mm .. [ 6] .. 4.0 mm .. [ 7] .. 4.2 mm .. [ 8] .. 4.4 mm .. [ 9] .. 4.6 mm .. [10] .. 4.8 mm .. [11] .. 5.0 mm .. [12] .. 5.2 mm .. [13] .. 5.4 mm .. [14] .. 5.6 mm .. [15] .. 5.8 mm .. [16] .. 6.0 mm .. [17]
; [ 2] 40.00 mm/s :  [ 1] .. 3.0 mm .. [ 2] .. 3.2 mm .. [ 3] .. 3.4 mm .. [ 4] .. 3.6 mm .. [ 5] .. 3.8 mm .. [ 6] .. 4.0 mm .. [ 7] .. 4.2 mm .. [ 8] .. 4.4 mm .. [ 9] .. 4.6 mm .. [10] .. 4.8 mm .. [11] .. 5.0 mm .. [12] .. 5.2 mm .. [13] .. 5.4 mm .. [14] .. 5.6 mm .. [15] .. 5.8 mm .. [16] .. 6.0 mm .. [17]
; [ 1] 35.00 mm/s :  [ 1] .. 3.0 mm .. [ 2] .. 3.2 mm .. [ 3] .. 3.4 mm .. [ 4] .. 3.6 mm .. [ 5] .. 3.8 mm .. [ 6] .. 4.0 mm .. [ 7] .. 4.2 mm .. [ 8] .. 4.4 mm .. [ 9] .. 4.6 mm .. [10] .. 4.8 mm .. [11] .. 5.0 mm .. [12] .. 5.2 mm .. [13] .. 5.4 mm .. [14] .. 5.6 mm .. [15] .. 5.8 mm .. [16] .. 6.0 mm .. [17]
; 
; Z: (print temp.)
; [ 1] - 0.00 mm - 230.00 C
; ========================


;
; PROLOGUE
; ################
; settings:
;   accel_x = 500
;   accel_y = 500
;   accel_z = 100
;   accel_e = 5000
;   feed_x = 500
;   feed_y = 500
;   feed_z = 5
;   feed_z_m = 300
;   feed_z_ret = 300
;   feed_e = 25
;   temp_bed = 50
;   temp_nozzle = 230
;   fan_spd_initial = 0
;   fan_spd_other = 169
;   feed_travel = 10800
;   feed_print = 3000
;   feed_print_outer = 3000
;   feed_print_first = 1200
;   bed_size_x = 235
;   bed_size_y = 235
;   nozzle_diam = 0.4
;   layer_height = 0.12
;   width_multiplier = 1.0
;   filament_diam = 1.75
;   ret_d_start = 3
;   ret_d_step = 0.2
;   ret_z_hop = 0.12
;   ret_spd_start = 35
;   ret_spd_step = 5
;   ret_temp_start = 230
;   ret_temp_step = -5
;   ret_temp_step_h = 41
;   square_size = 3
;   max_tile_span = 12
;   brim_width = 1
;   steps_x = 17
;   steps_y = 7
;   steps_z = 1
;   margin_x = 20
;   margin_y = 50
;   gcode_intro_abl = 
;   gcode_intro_prime = 
;     G92 E0 ; Reset Extruder
;     G1 Z2.0 F3000 ; Move Z Axis up little to prevent scratching of Heat Bed
;     G1 X10.1 Y20 Z0.28 F5000.0 ; Move to start position
;     G1 X10.1 Y200.0 Z0.28 F1500.0 E15 ; Draw the first line
;     G1 X10.4 Y200.0 Z0.28 F5000.0 ; Move to side a little
;     G1 X10.4 Y20 Z0.28 F1500.0 E30 ; Draw the second line
;     G92 E0 ; Reset Extruder
;     G1 Z2.0 F3000 ; Move Z Axis up little to prevent scratching of Heat Bed
;     
;   0-explanation = https://youtu.be/x8GNs6GZduc?t=437
;   coord_z_hop = 0.24
;   e_per_mm = 0.018671297535706604
;   last_ret_d = 0
;   line_width = 0.4
;   mm3_per_mm = 0.044909733552923256
;   nozzle_area = 0.12566370614359174
;   ret_d = 3
;   tile_x_start = 20
;   tile_x_step = 11.470588235294118
;   tile_y_start = 50
;   tile_y_step = 12
;   ret_d_steps = [3.0, 3.2, 3.4, 3.6, 3.8, 4.0, 4.2, 4.4, 4.6, 4.8, 5.0, 5.2, 5.4, 5.6, 5.800000000000001, 6.0]
;   ret_spd_steps = [35, 40, 45, 50, 55, 60, 65, 70, 75, 80, 85, 90, 95, 100, 105, 110]
;   temp_steps = []
; ################

M73 P0 R86
M73 Q0 S86
M201 X500 Y500 Z100 E5000
M203 X500 Y500 Z5 E25 ; sets maximum feedrates, mm/sec
M205 S0 T0 ; sets the minimum extruding and travel feed rate, mm/sec
M107
M83  ; extruder relative mode
M104 S230 ; set extruder temp
M140 S50    ; set bed temp
M190 S50    ; wait for bed temp
M109 S230 ; wait for extruder temp
G28 ; home all axes


G92 E0 ; Reset Extruder
G1 Z2.0 F3000 ; Move Z Axis up little to prevent scratching of Heat Bed
G1 X10.1 Y20 Z0.28 F5000.0 ; Move to start position
G1 X10.1 Y200.0 Z0.28 F1500.0 E15 ; Draw the first line
G1 X10.4 Y200.0 Z0.28 F5000.0 ; Move to side a little
G1 X10.4 Y20 Z0.28 F1500.0 E30 ; Draw the second line
G92 E0 ; Reset Extruder
G1 Z2.0 F3000 ; Move Z Axis up little to prevent scratching of Heat Bed

M221 S95
M900 K30; Filament gcode
G21 ; set units to millimeters
G90 ; use absolute coordinates
M83 ; use relative distances for extrusion


G1 Z0.24 F300 ; z-hop
G1 E-3.0 F2100 ; retract

; -----------------
; Z tile layer 0
; nozzle_temp = 230
M104 S230 ; nozzle temp


;AFTER_LAYER_CHANGE
;0.12
M107 ; fan speed (or fan off)
G1 Z0.12 F300 ; change the z-coord

; tile x=0 y=0 z=0
; tile pos x=20.0 y=50 z=0.0
; retraction settings:
;     distance = 3.0 mm
;     speed    = 35 mm/s
; nozzle_temp  = 230

G1 X19.0 Y49 F10800 ; travel
G1 Z0.12 F300; z-unhop
G1 E3.0 F2100 ; deretract
G1 X19.000000 Y54.000000 E0.093356 F1200.000000
G1 X19.400000 Y54.000000 E0.007469 F1200.000000
G1 X19.400000 Y49.000000 E0.093356 F1200.000000
G1 X19.800000 Y49.000000 E0.007469 F1200.000000
G1 X19.800000 Y54.000000 E0.093356 F1200.000000
G1 X20.200000 Y54.000000 E0.007469 F1200.000000
G1 X20.200000 Y49.000000 E0.093356 F1200.000000
G1 X20.600000 Y49.000000 E0.007469 F1200.000000
G1 X20.600000 Y54.000000 E0.093356 F1200.000000
G1 X21.000000 Y54.000000 E0.007469 F1200.000000
G1 X21.000000 Y49.000000 E0.093356 F1200.000000
G1 X21.400000 Y49.000000 E0.007469 F1200.000000
G1 X21.400000 Y54.000000 E0.093356 F1200.000000
G1 X21.800000 Y54.000000 E0.007469 F1200.000000
G1 X21.800000 Y49.000000 E0.093356 F1200.000000
G1 X22.200000 Y49.000000 E0.007469 F1200.000000
G1 X22.200000 Y54.000000 E0.093356 F1200.000000
G1 X22.600000 Y54.000000 E0.007469 F1200.000000
G1 X22.600000 Y49.000000 E0.093356 F1200.000000
G1 X23.000000 Y49.000000 E0.007469 F1200.000000
G1 X23.000000 Y54.000000 E0.093356 F1200.000000
G1 X23.400000 Y54.000000 E0.007469 F1200.000000
G1 X23.400000 Y49.000000 E0.093356 F1200.000000

G1 Z0.24 F300 ; z-hop
G1 E-3.0 F2100 ; retract

; tile x=1 y=0 z=0
; tile pos x=31.470588235294116 y=50 z=0.0
; retraction settings:
;     distance = 3.2 mm
;     speed    = 35 mm/s
; nozzle_temp  = 230

G1 X30.470588235294116 Y49 F10800 ; travel
G1 Z0.12 F300; z-unhop
G1 E3.0 F2100 ; deretract
G1 X30.470588 Y54.000000 E0.093356 F1200.000000
G1 X30.870588 Y54.000000 E0.007469 F1200.000000
G1 X30.870588 Y49.000000 E0.093356 F1200.000000
G1 X31.270588 Y49.000000 E0.007469 F1200.000000
G1 X31.270588 Y54.000000 E0.093356 F1200.000000
G1 X31.670588 Y54.000000 E0.007469 F1200.000000
G1 X31.670588 Y49.000000 E0.093356 F1200.000000
G1 X32.070588 Y49.000000 E0.007469 F1200.000000
G1 X32.070588 Y54.000000 E0.093356 F1200.000000
G1 X32.470588 Y54.000000 E0.007469 F1200.000000
G1 X32.470588 Y49.000000 E0.093356 F1200.000000
G1 X32.870588 Y49.000000 E0.007469 F1200.000000
G1 X32.870588 Y54.000000 E0.093356 F1200.000000
G1 X33.270588 Y54.000000 E0.007469 F1200.000000
G1 X33.270588 Y49.000000 E0.093356 F1200.000000
G1 X33.670588 Y49.000000 E0.007469 F1200.000000
G1 X33.670588 Y54.000000 E0.093356 F1200.000000
G1 X34.070588 Y54.000000 E0.007469 F1200.000000
G1 X34.070588 Y49.000000 E0.093356 F1200.000000
G1 X34.470588 Y49.000000 E0.007469 F1200.000000
G1 X34.470588 Y54.000000 E0.093356 F1200.000000
G1 X34.870588 Y54.000000 E0.007469 F1200.000000
G1 X34.870588 Y49.000000 E0.093356 F1200.000000

G1 Z0.24 F300 ; z-hop
G1 E-3.2 F2100 ; retract

; tile x=2 y=0 z=0
; tile pos x=42.94117647058823 y=50 z=0.0
; retraction settings:
;     distance = 3.4 mm
;     speed    = 35 mm/s
; nozzle_temp  = 230

G1 X41.94117647058823 Y49 F10800 ; travel
G1 Z0.12 F300; z-unhop
G1 E3.2 F2100 ; deretract
G1 X41.941176 Y54.000000 E0.093356 F1200.000000
G1 X42.341176 Y54.000000 E0.007469 F1200.000000
G1 X42.341176 Y49.000000 E0.093356 F1200.000000
G1 X42.741176 Y49.000000 E0.007469 F1200.000000
G1 X42.741176 Y54.000000 E0.093356 F1200.000000
G1 X43.141176 Y54.000000 E0.007469 F1200.000000
G1 X43.141176 Y49.000000 E0.093356 F1200.000000
G1 X43.541176 Y49.000000 E0.007469 F1200.000000
G1 X43.541176 Y54.000000 E0.093356 F1200.000000
G1 X43.941176 Y54.000000 E0.007469 F1200.000000
G1 X43.941176 Y49.000000 E0.093356 F1200.000000
G1 X44.341176 Y49.000000 E0.007469 F1200.000000
G1 X44.341176 Y54.000000 E0.093356 F1200.000000
G1 X44.741176 Y54.000000 E0.007469 F1200.000000
G1 X44.741176 Y49.000000 E0.093356 F1200.000000
G1 X45.141176 Y49.000000 E0.007469 F1200.000000
G1 X45.141176 Y54.000000 E0.093356 F1200.000000
G1 X45.541176 Y54.000000 E0.007469 F1200.000000
G1 X45.541176 Y49.000000 E0.093356 F1200.000000
G1 X45.941176 Y49.000000 E0.007469 F1200.000000
G1 X45.941176 Y54.000000 E0.093356 F1200.000000
G1 X46.341176 Y54.000000 E0.007469 F1200.000000
G1 X46.341176 Y49.000000 E0.093356 F1200.000000

G1 Z0.24 F300 ; z-hop
G1 E-3.4 F2100 ; retract

; tile x=3 y=0 z=0
; tile pos x=54.411764705882355 y=50 z=0.0
; retraction settings:
;     distance = 3.6 mm
;     speed    = 35 mm/s
; nozzle_temp  = 230

G1 X53.411764705882355 Y49 F10800 ; travel
G1 Z0.12 F300; z-unhop
G1 E3.4 F2100 ; deretract
G1 X53.411765 Y54.000000 E0.093356 F1200.000000
G1 X53.811765 Y54.000000 E0.007469 F1200.000000
G1 X53.811765 Y49.000000 E0.093356 F1200.000000
G1 X54.211765 Y49.000000 E0.007469 F1200.000000
G1 X54.211765 Y54.000000 E0.093356 F1200.000000
G1 X54.611765 Y54.000000 E0.007469 F1200.000000
G1 X54.611765 Y49.000000 E0.093356 F1200.000000
G1 X55.011765 Y49.000000 E0.007469 F1200.000000
G1 X55.011765 Y54.000000 E0.093356 F1200.000000
G1 X55.411765 Y54.000000 E0.007469 F1200.000000
G1 X55.411765 Y49.000000 E0.093356 F1200.000000
G1 X55.811765 Y49.000000 E0.007469 F1200.000000
G1 X55.811765 Y54.000000 E0.093356 F1200.000000
G1 X56.211765 Y54.000000 E0.007469 F1200.000000
G1 X56.211765 Y49.000000 E0.093356 F1200.000000
G1 X56.611765 Y49.000000 E0.007469 F1200.000000
G1 X56.611765 Y54.000000 E0.093356 F1200.000000
G1 X57.011765 Y54.000000 E0.007469 F1200.000000
G1 X57.011765 Y49.000000 E0.093356 F1200.000000
G1 X57.411765 Y49.000000 E0.007469 F1200.000000
G1 X57.411765 Y54.000000 E0.093356 F1200.000000
G1 X57.811765 Y54.000000 E0.007469 F1200.000000
G1 X57.811765 Y49.000000 E0.093356 F1200.000000

G1 Z0.24 F300 ; z-hop
G1 E-3.6 F2100 ; retract

; tile x=4 y=0 z=0
; tile pos x=65.88235294117646 y=50 z=0.0
; retraction settings:
;     distance = 3.8 mm
;     speed    = 35 mm/s
; nozzle_temp  = 230

G1 X64.88235294117646 Y49 F10800 ; travel
G1 Z0.12 F300; z-unhop
G1 E3.6 F2100 ; deretract
G1 X64.882353 Y54.000000 E0.093356 F1200.000000
G1 X65.282353 Y54.000000 E0.007469 F1200.000000
G1 X65.282353 Y49.000000 E0.093356 F1200.000000
G1 X65.682353 Y49.000000 E0.007469 F1200.000000
G1 X65.682353 Y54.000000 E0.093356 F1200.000000
G1 X66.082353 Y54.000000 E0.007469 F1200.000000
G1 X66.082353 Y49.000000 E0.093356 F1200.000000
G1 X66.482353 Y49.000000 E0.007469 F1200.000000
G1 X66.482353 Y54.000000 E0.093356 F1200.000000
G1 X66.882353 Y54.000000 E0.007469 F1200.000000
G1 X66.882353 Y49.000000 E0.093356 F1200.000000
G1 X67.282353 Y49.000000 E0.007469 F1200.000000
G1 X67.282353 Y54.000000 E0.093356 F1200.000000
G1 X67.682353 Y54.000000 E0.007469 F1200.000000
G1 X67.682353 Y49.000000 E0.093356 F1200.000000
G1 X68.082353 Y49.000000 E0.007469 F1200.000000
G1 X68.082353 Y54.000000 E0.093356 F1200.000000
G1 X68.482353 Y54.000000 E0.007469 F1200.000000
G1 X68.482353 Y49.000000 E0.093356 F1200.000000
G1 X68.882353 Y49.000000 E0.007469 F1200.000000
G1 X68.882353 Y54.000000 E0.093356 F1200.000000
G1 X69.282353 Y54.000000 E0.007469 F1200.000000
G1 X69.282353 Y49.000000 E0.093356 F1200.000000

G1 Z0.24 F300 ; z-hop
G1 E-3.8 F2100 ; retract

; tile x=5 y=0 z=0
; tile pos x=77.35294117647058 y=50 z=0.0
; retraction settings:
;     distance = 4.0 mm
;     speed    = 35 mm/s
; nozzle_temp  = 230

G1 X76.35294117647058 Y49 F10800 ; travel
G1 Z0.12 F300; z-unhop
G1 E3.8 F2100 ; deretract
G1 X76.352941 Y54.000000 E0.093356 F1200.000000
G1 X76.752941 Y54.000000 E0.007469 F1200.000000
G1 X76.752941 Y49.000000 E0.093356 F1200.000000
G1 X77.152941 Y49.000000 E0.007469 F1200.000000
G1 X77.152941 Y54.000000 E0.093356 F1200.000000
G1 X77.552941 Y54.000000 E0.007469 F1200.000000
G1 X77.552941 Y49.000000 E0.093356 F1200.000000
G1 X77.952941 Y49.000000 E0.007469 F1200.000000
G1 X77.952941 Y54.000000 E0.093356 F1200.000000
G1 X78.352941 Y54.000000 E0.007469 F1200.000000
G1 X78.352941 Y49.000000 E0.093356 F1200.000000
G1 X78.752941 Y49.000000 E0.007469 F1200.000000
G1 X78.752941 Y54.000000 E0.093356 F1200.000000
G1 X79.152941 Y54.000000 E0.007469 F1200.000000
G1 X79.152941 Y49.000000 E0.093356 F1200.000000
G1 X79.552941 Y49.000000 E0.007469 F1200.000000
G1 X79.552941 Y54.000000 E0.093356 F1200.000000
G1 X79.952941 Y54.000000 E0.007469 F1200.000000
G1 X79.952941 Y49.000000 E0.093356 F1200.000000
G1 X80.352941 Y49.000000 E0.007469 F1200.000000
G1 X80.352941 Y54.000000 E0.093356 F1200.000000
G1 X80.752941 Y54.000000 E0.007469 F1200.000000
G1 X80.752941 Y49.000000 E0.093356 F1200.000000

G1 Z0.24 F300 ; z-hop
G1 E-4.0 F2100 ; retract

; tile x=6 y=0 z=0
; tile pos x=88.82352941176471 y=50 z=0.0
; retraction settings:
;     distance = 4.2 mm
;     speed    = 35 mm/s
; nozzle_temp  = 230

G1 X87.82352941176471 Y49 F10800 ; travel
G1 Z0.12 F300; z-unhop
G1 E4.0 F2100 ; deretract
G1 X87.823529 Y54.000000 E0.093356 F1200.000000
G1 X88.223529 Y54.000000 E0.007469 F1200.000000
G1 X88.223529 Y49.000000 E0.093356 F1200.000000
G1 X88.623529 Y49.000000 E0.007469 F1200.000000
G1 X88.623529 Y54.000000 E0.093356 F1200.000000
G1 X89.023529 Y54.000000 E0.007469 F1200.000000
G1 X89.023529 Y49.000000 E0.093356 F1200.000000
G1 X89.423529 Y49.000000 E0.007469 F1200.000000
G1 X89.423529 Y54.000000 E0.093356 F1200.000000
G1 X89.823529 Y54.000000 E0.007469 F1200.000000
G1 X89.823529 Y49.000000 E0.093356 F1200.000000
G1 X90.223529 Y49.000000 E0.007469 F1200.000000
G1 X90.223529 Y54.000000 E0.093356 F1200.000000
G1 X90.623529 Y54.000000 E0.007469 F1200.000000
G1 X90.623529 Y49.000000 E0.093356 F1200.000000
G1 X91.023529 Y49.000000 E0.007469 F1200.000000
G1 X91.023529 Y54.000000 E0.093356 F1200.000000
G1 X91.423529 Y54.000000 E0.007469 F1200.000000
G1 X91.423529 Y49.000000 E0.093356 F1200.000000
G1 X91.823529 Y49.000000 E0.007469 F1200.000000
G1 X91.823529 Y54.000000 E0.093356 F1200.000000
G1 X92.223529 Y54.000000 E0.007469 F1200.000000
G1 X92.223529 Y49.000000 E0.093356 F1200.000000

G1 Z0.24 F300 ; z-hop
G1 E-4.2 F2100 ; retract

; tile x=7 y=0 z=0
; tile pos x=100.29411764705883 y=50 z=0.0
; retraction settings:
;     distance = 4.4 mm
;     speed    = 35 mm/s
; nozzle_temp  = 230

G1 X99.29411764705883 Y49 F10800 ; travel
G1 Z0.12 F300; z-unhop
G1 E4.2 F2100 ; deretract
G1 X99.294118 Y54.000000 E0.093356 F1200.000000
G1 X99.694118 Y54.000000 E0.007469 F1200.000000
G1 X99.694118 Y49.000000 E0.093356 F1200.000000
G1 X100.094118 Y49.000000 E0.007469 F1200.000000
G1 X100.094118 Y54.000000 E0.093356 F1200.000000
